X:96
T: Schloss in Oesterreich
N: Q0024O
O: Mitteleuropa, Deutschland (BRD) , Rheinprovinz
N: Vgl. Q0024L und M
R: Ballade, Gefangenschaft, Hinrichtung, Tod, Vergeltung
M: 3/4
L: 1/16
K: D
D2 | D2FAA4G2E2 | D3FF4E2
D2 | D2FAA4G2E2 | G2A2F4z2
A2 | A2cee4c2A2 | B2c2d4
d4 | B2B2A4F4 | G2A2F4z2

@@@ Tune index: 725
